icons/adoc.svg

<svg width="16" height="16" viewBox="0 0 16 16" fill="none" xmlns="http://www.w3.org/2000/svg">
<path d="M3.90533 3.00219L7.20837 8.75888H12.9428C12.9805 8.51142 13 8.258 13 8.00001C13 5.23858 10.7615 3 8.00001 3H3.97113C3.94902 3 3.92707 3.00074 3.90533 3.00219Z" fill="#3CA8C0"/>
<path d="M3 4.84452L5.24596 8.75889H3V4.84452Z" fill="#3CA8C0"/>
<path d="M3 10.461V12.0289C3 12.5652 3.43479 13 3.97113 13H7.67941L6.2226 10.461H3Z" fill="#3CA8C0"/>
<path d="M9.50885 12.7683C10.7229 12.3845 11.7365 11.5499 12.3534 10.461H8.18501L9.50885 12.7683Z" fill="#3CA8C0"/>
</svg>

<svg xmlns="http://www.w3.org/2000/svg" width="16" height="16" fill="none"><path fill="#3CA8C0" d="M3.905 3.002 7.208 8.76h5.735A5 5 0 0 0 8 3H3.971c-.022 0-.044 0-.066.002ZM3 4.845l2.246 3.914H3V4.845ZM3 10.461v1.568c0 .536.435.971.971.971H7.68l-1.456-2.539H3ZM9.509 12.768a5.014 5.014 0 0 0 2.844-2.307H8.185l1.324 2.307Z"/></svg>
